assets/images/moving3.svg

<svg width="64" height="64" viewBox="0 0 64 64" fill="none" xmlns="http://www.w3.org/2000/svg">
<g clip-path="url(#clip0_51_9148)">
<path d="M51.69 30.0002H46.87V13.1002C46.8385 11.5884 46.2095 10.1505 45.1208 9.10112C44.032 8.0517 42.572 7.47612 41.06 7.50024H21.94C20.428 7.47612 18.968 8.0517 17.8792 9.10112C16.7904 10.1505 16.1615 11.5884 16.13 13.1002V30.0002H11.31C9.79801 29.9761 8.33799 30.5517 7.24922 31.6011C6.16045 32.6505 5.53153 34.0884 5.5 35.6002V57.5002H57.5V35.5602C57.4581 34.0554 56.8246 32.6278 55.737 31.5869C54.6493 30.5461 53.1952 29.976 51.69 30.0002Z" fill="white"/>
<path d="M38.94 38.38H38.69V40.92H47.69V38.38H38.94ZM57 57.25H57.25V35.56C57.2211 34.1136 56.6193 32.7377 55.5769 31.7346C54.5344 30.7315 53.1365 30.1832 51.69 30.21H46.62V13.1C46.5911 11.6535 45.9893 10.2777 44.9469 9.27464C43.9044 8.27154 42.5065 7.72318 41.06 7.74996H21.94C20.4935 7.72318 19.0956 8.27154 18.0531 9.27464C17.0107 10.2777 16.4089 11.6535 16.38 13.1V30.21H11.31C9.86355 30.1832 8.46559 30.7315 7.42312 31.7346C6.38065 32.7377 5.7789 34.1136 5.75 35.56V57.25H57ZM15.56 38.38H15.31V40.92H24.31V38.38H15.56ZM27 18.21V18.46H36V15.92H27V18.21ZM44 30.21H19V13.1C19.0184 12.3378 19.3381 11.6141 19.8892 11.0873C20.4404 10.5606 21.1778 10.2739 21.94 10.29H41.06C41.8222 10.2739 42.5596 10.5606 43.1108 11.0873C43.6619 11.6141 43.9816 12.3378 44 13.1V30.21ZM30.19 32.75V54.75H8.38V35.56C8.3878 35.183 8.46978 34.8113 8.62126 34.4661C8.77274 34.1209 8.99076 33.8089 9.26285 33.5479C9.53494 33.287 9.85578 33.0822 10.207 32.9453C10.5583 32.8084 10.9331 32.742 11.31 32.75H30.19ZM51.69 32.75C52.0669 32.742 52.4417 32.8084 52.793 32.9453C53.1442 33.0822 53.4651 33.287 53.7371 33.5479C54.0092 33.8089 54.2273 34.1209 54.3787 34.4661C54.5302 34.8113 54.6122 35.183 54.62 35.56V54.71H32.81V32.71L51.69 32.75Z" fill="#022F45" stroke="#022F45" stroke-width="0.5"/>
</g>
<defs>
<clipPath id="clip0_51_9148">
<rect width="64" height="64" fill="white"/>
</clipPath>
</defs>
</svg>

<svg width="64" height="64" fill="none" xmlns="http://www.w3.org/2000/svg"><g clip-path="url(#a)"><path d="M51.69 30h-4.82V13.1a5.72 5.72 0 0 0-5.81-5.6H21.94a5.72 5.72 0 0 0-5.81 5.6V30h-4.82a5.72 5.72 0 0 0-5.81 5.6v21.9h52V35.56A5.72 5.72 0 0 0 51.69 30Z" fill="#fff"/><path d="M38.94 38.38h-.25v2.54h9v-2.54h-8.75ZM57 57.25h.25V35.56a5.46 5.46 0 0 0-5.56-5.35h-5.07V13.1a5.46 5.46 0 0 0-5.56-5.35H21.94a5.46 5.46 0 0 0-5.56 5.35v17.11h-5.07a5.46 5.46 0 0 0-5.56 5.35v21.69H57ZM15.56 38.38h-.25v2.54h9v-2.54h-8.75ZM27 18.21v.25h9v-2.54h-9v2.29Zm17 12H19V13.1a2.88 2.88 0 0 1 2.94-2.81h19.12A2.88 2.88 0 0 1 44 13.1v17.11Zm-13.81 2.54v22H8.38V35.56a2.87 2.87 0 0 1 2.93-2.81h18.88Zm21.5 0a2.87 2.87 0 0 1 2.93 2.81v19.15H32.81v-22l18.88.04Z" fill="#022F45" stroke="#022F45" stroke-width=".5"/></g><defs><clipPath id="a"><path fill="#fff" d="M0 0h64v64H0z"/></clipPath></defs></svg>
